X: 29
T:Jackson's Breakdown
% Nottingham Music Database
S:via PR
M:4/4
L:1/4
K:D
"D"A3/2d/2 f/2g/2f/2e/2|dF A3/2d/2|"A"cE G3/2B/2|"D"AD F2|\
"D"A3/2d/2 f/2g/2f/2e/2|"D"dF A3/2d/2|"A"cA Bc|"D"d2 d2::
"A"e3/2f/2 e3/2f/2|ea e2|"Bm"bb/2a/2 "E"f^g|"A"ac e2|"A"e3/2f/2 e3/2f/2|ea e2|\
"Bm"bb/2a/2 "E"f^g|"A"a2 a2:|<end>
<start>
